svgs/duotone/calendar-lines.svg

<svg xmlns="http://www.w3.org/2000/svg" viewBox="0 0 448 512"><!--! Font Awesome Pro 6.0.0-alpha3 by @fontawesome - https://fontawesome.com License - https://fontawesome.com/license (Commercial License) --><defs><style>.fa-secondary{opacity:.4}</style></defs><path class="fa-primary" d="M400 64H352V31.1C352 14.4 337.6 0 320 0c-17.6 0-32 14.4-32 31.1V64H160V31.1C160 14.4 145.6 0 128 0S96 14.4 96 31.1V64H48c-26.51 0-48 21.49-48 48L0 192h448l.0002-80C448 85.49 426.5 64 400 64zM120 320h208C341.3 320 352 309.3 352 296S341.3 272 328 272h-208C106.8 272 96 282.8 96 296S106.8 320 120 320zM120 416h112c13.25 0 24-10.75 24-24s-10.75-24-24-24h-112C106.8 368 96 378.8 96 392S106.8 416 120 416z"/><path class="fa-secondary" d="M0 192l.0002 272c0 26.5 21.5 48 48 48h352c26.5 0 48-21.5 48-48L448 192H0zM232 416h-112C106.8 416 96 405.3 96 392s10.75-24 24-24h112c13.25 0 24 10.75 24 24S245.3 416 232 416zM328 320h-208C106.8 320 96 309.3 96 296S106.8 272 120 272h208C341.3 272 352 282.8 352 296S341.3 320 328 320z"/></svg>

<svg xmlns="http://www.w3.org/2000/svg" viewBox="0 0 448 512"><!--! Font Awesome Pro 6.0.0 by @fontawesome - https://fontawesome.com License - https://fontawesome.com/license (Commercial License) Copyright 2022 Fonticons, Inc. --><defs><style>.fa-secondary{opacity:.4}</style></defs><path class="fa-primary" d="M96 32C96 14.33 110.3 0 128 0C145.7 0 160 14.33 160 32V64H288V32C288 14.33 302.3 0 320 0C337.7 0 352 14.33 352 32V64H400C426.5 64 448 85.49 448 112V192H0V112C0 85.49 21.49 64 48 64H96V32zM96 296C96 282.7 106.7 272 120 272H328C341.3 272 352 282.7 352 296C352 309.3 341.3 320 328 320H120C106.7 320 96 309.3 96 296zM232 368C245.3 368 256 378.7 256 392C256 405.3 245.3 416 232 416H120C106.7 416 96 405.3 96 392C96 378.7 106.7 368 120 368H232z"/><path class="fa-secondary" d="M0 192H448V464C448 490.5 426.5 512 400 512H48C21.49 512 0 490.5 0 464V192zM120 320H328C341.3 320 352 309.3 352 296C352 282.7 341.3 272 328 272H120C106.7 272 96 282.7 96 296C96 309.3 106.7 320 120 320zM120 368C106.7 368 96 378.7 96 392C96 405.3 106.7 416 120 416H232C245.3 416 256 405.3 256 392C256 378.7 245.3 368 232 368H120z"/></svg>
